X:1
T:Amhr\'an Na Leabhar (The Song of the Books)
M:4/4
L:1/8
Z:transcribed by Paul de Grae
S:Andrew Kuntz <AIKUNTZ@AOL.COM> irtrad-l 2001-01-30
K:Edor
B2|E2 EF G2 A2|Be e4 zf|e3 d B3 A|Bc d4 e2|
E3 F G3 F|GA B3 B2 A|G2 E4 zD|E4 z2 B2|
E3 F G2 A2|Be e4 zf|e3 d B3 A|Bc d4 z2 |
E2 EF G3 F|GA B3 B2 A|G2 F E4 D|E4 z2 e2|
e2 ed e3 d|ef g4 f2|e3 d B3 A|B4 z2 Bc|
d2 dc d3 c|dd e4  ed|B3 A G3 A|B4 z2 B2|
E2 EF G2 A2|Be e4 ef|e3 d B3 A|Bc d4 ze|
E2 EF G3 F|GA B4  BA|G2 F E4 D|E6 ||
